assets/images/icon_react.svg

<?xml version="1.0" encoding="UTF-8"?>
<!DOCTYPE svg PUBLIC "-//W3C//DTD SVG 1.1//EN" "http://www.w3.org/Graphics/SVG/1.1/DTD/svg11.dtd">
<!-- Creator: CorelDRAW 2019 (64 Bit) -->
<svg xmlns="http://www.w3.org/2000/svg" xml:space="preserve" width="4.3705mm" height="3.8921mm" version="1.1" style="shape-rendering:geometricPrecision; text-rendering:geometricPrecision; image-rendering:optimizeQuality; fill-rule:evenodd; clip-rule:evenodd"
viewBox="0 0 1.37 1.22"
 xmlns:xlink="http://www.w3.org/1999/xlink"
 enable-background="new 0 0 841.9 595.3">
 <defs>
  <style type="text/css">
   <![CDATA[
    .fil0 {fill:#61DAFB}
   ]]>
  </style>
 </defs>
 <g id="Camada_x0020_1">
  <metadata id="CorelCorpID_0Corel-Layer"/>
  <g id="_1486815953104">
   <g>
    <path class="fil0" d="M1.37 0.61c0,-0.09 -0.11,-0.18 -0.29,-0.23 0.04,-0.18 0.02,-0.32 -0.06,-0.36 -0.02,-0.01 -0.04,-0.02 -0.06,-0.02l0 0.06c0.01,0 0.02,0 0.03,0.01 0.04,0.02 0.05,0.1 0.04,0.21 -0,0.03 -0.01,0.05 -0.01,0.08 -0.05,-0.01 -0.11,-0.02 -0.18,-0.03 -0.04,-0.05 -0.08,-0.1 -0.12,-0.14 0.09,-0.08 0.18,-0.13 0.23,-0.13l0 -0.06c0,0 0,0 0,0 -0.08,0 -0.18,0.05 -0.28,0.15 -0.1,-0.09 -0.2,-0.15 -0.28,-0.15l0 0.06c0.06,0 0.14,0.05 0.23,0.13 -0.04,0.04 -0.08,0.09 -0.12,0.14 -0.06,0.01 -0.12,0.02 -0.18,0.03 -0.01,-0.03 -0.01,-0.06 -0.01,-0.08 -0.01,-0.11 0,-0.19 0.04,-0.21 0.01,-0.01 0.02,-0.01 0.03,-0.01l0 -0.06c0,0 0,0 0,0 -0.02,0 -0.04,0.01 -0.06,0.02 -0.08,0.05 -0.1,0.19 -0.06,0.36 -0.17,0.05 -0.29,0.14 -0.29,0.23 0,0.09 0.11,0.18 0.29,0.23 -0.04,0.18 -0.02,0.32 0.06,0.36 0.02,0.01 0.04,0.02 0.06,0.02 0.08,0 0.18,-0.05 0.28,-0.15 0.1,0.09 0.2,0.15 0.28,0.15 0.02,0 0.04,-0.01 0.06,-0.02 0.08,-0.05 0.1,-0.19 0.06,-0.36 0.17,-0.05 0.29,-0.14 0.29,-0.23zm-0.36 -0.19c-0.01,0.04 -0.02,0.07 -0.04,0.11 -0.01,-0.02 -0.02,-0.04 -0.04,-0.07 -0.01,-0.02 -0.03,-0.04 -0.04,-0.07 0.04,0.01 0.08,0.01 0.11,0.02zm-0.13 0.3c-0.02,0.04 -0.04,0.07 -0.07,0.11 -0.04,0 -0.08,0.01 -0.13,0.01 -0.04,0 -0.08,-0 -0.13,-0.01 -0.02,-0.03 -0.05,-0.07 -0.07,-0.11 -0.02,-0.04 -0.04,-0.07 -0.06,-0.11 0.02,-0.04 0.04,-0.07 0.06,-0.11 0.02,-0.04 0.04,-0.07 0.07,-0.11 0.04,-0 0.08,-0.01 0.13,-0.01 0.04,0 0.08,0 0.13,0.01 0.02,0.03 0.05,0.07 0.07,0.11 0.02,0.04 0.04,0.07 0.06,0.11 -0.02,0.04 -0.04,0.07 -0.06,0.11zm0.09 -0.04c0.02,0.04 0.03,0.07 0.04,0.11 -0.04,0.01 -0.08,0.02 -0.12,0.02 0.01,-0.02 0.03,-0.04 0.04,-0.07 0.01,-0.02 0.02,-0.04 0.04,-0.07zm-0.28 0.3c-0.03,-0.03 -0.05,-0.06 -0.08,-0.09 0.03,0 0.05,0 0.08,0 0.03,0 0.05,-0 0.08,-0 -0.03,0.03 -0.05,0.06 -0.08,0.09zm-0.21 -0.16c-0.04,-0.01 -0.08,-0.01 -0.11,-0.02 0.01,-0.04 0.02,-0.07 0.04,-0.11 0.01,0.02 0.02,0.04 0.04,0.07 0.01,0.02 0.03,0.04 0.04,0.07zm0.21 -0.58c0.03,0.03 0.05,0.06 0.08,0.09 -0.03,-0 -0.05,-0 -0.08,-0 -0.03,0 -0.05,0 -0.08,0 0.03,-0.03 0.05,-0.06 0.08,-0.09zm-0.21 0.16c-0.01,0.02 -0.03,0.04 -0.04,0.07 -0.01,0.02 -0.02,0.04 -0.04,0.07 -0.02,-0.04 -0.03,-0.07 -0.04,-0.11 0.04,-0.01 0.08,-0.02 0.12,-0.02zm-0.25 0.35c-0.1,-0.04 -0.16,-0.1 -0.16,-0.14 0,-0.04 0.06,-0.1 0.16,-0.14 0.02,-0.01 0.05,-0.02 0.08,-0.03 0.02,0.05 0.04,0.11 0.06,0.17 -0.03,0.06 -0.05,0.11 -0.06,0.17 -0.03,-0.01 -0.05,-0.02 -0.08,-0.03zm0.15 0.4c-0.04,-0.02 -0.05,-0.1 -0.04,-0.21 0,-0.03 0.01,-0.05 0.01,-0.08 0.05,0.01 0.11,0.02 0.18,0.03 0.04,0.05 0.08,0.1 0.12,0.14 -0.09,0.08 -0.18,0.13 -0.23,0.13 -0.01,-0 -0.02,-0 -0.03,-0.01zm0.66 -0.21c0.01,0.11 -0,0.19 -0.04,0.21 -0.01,0.01 -0.02,0.01 -0.03,0.01 -0.06,0 -0.14,-0.05 -0.23,-0.13 0.04,-0.04 0.08,-0.09 0.12,-0.14 0.06,-0.01 0.12,-0.02 0.18,-0.03 0.01,0.03 0.01,0.06 0.01,0.08zm0.11 -0.19c-0.02,0.01 -0.05,0.02 -0.08,0.03 -0.02,-0.05 -0.04,-0.11 -0.06,-0.17 0.03,-0.06 0.05,-0.11 0.06,-0.17 0.03,0.01 0.05,0.02 0.08,0.03 0.1,0.04 0.16,0.1 0.16,0.14 -0,0.04 -0.06,0.1 -0.16,0.14z"/>
    <polygon class="fil0" points="0.41,0 0.41,0 "/>
    <circle class="fil0" cx="0.68" cy="0.61" r="0.13"/>
    <polygon class="fil0" points="0.96,0 0.96,0 "/>
   </g>
  </g>
 </g>
</svg>

<svg xmlns="http://www.w3.org/2000/svg" xml:space="preserve" width="16.518" height="14.71" style="shape-rendering:geometricPrecision;text-rendering:geometricPrecision;image-rendering:optimizeQuality;fill-rule:evenodd;clip-rule:evenodd" viewBox="0 0 1.37 1.22">
    <g id="Camada_x0020_1">
        <g id="_1486815953104">
            <path style="fill:#61dafb;" d="M1.37.61c0-.09-.11-.18-.29-.23.04-.18.02-.32-.06-.36C1 .01.98 0 .96 0v.06c.01 0 .02 0 .03.01.04.02.05.1.04.21 0 .03-.01.05-.01.08C.97.35.91.34.84.33.8.28.76.23.72.19.81.11.9.06.95.06V0C.87 0 .77.05.67.15.57.06.47 0 .39 0v.06c.06 0 .14.05.23.13C.58.23.54.28.5.33L.32.36C.31.33.31.3.31.28.3.17.31.09.35.07.36.06.37.06.38.06V0C.36 0 .34.01.32.02.24.07.22.21.26.38.09.43-.03.52-.03.61s.11.18.29.23c-.04.18-.02.32.06.36.02.01.04.02.06.02.08 0 .18-.05.28-.15.1.09.2.15.28.15.02 0 .04-.01.06-.02.08-.05.1-.19.06-.36.17-.05.29-.14.29-.23zM1.01.42C1 .46.99.49.97.53.96.51.95.49.93.46.92.44.9.42.89.39.93.4.97.4 1 .41zm-.13.3C.86.76.84.79.81.83.77.83.73.84.68.84.64.84.6.84.55.83.53.8.5.76.48.72.46.68.44.65.42.61.44.57.46.54.48.5.5.46.52.43.55.39.59.39.63.38.68.38c.04 0 .08 0 .13.01.02.03.05.07.07.11.02.04.04.07.06.11C.92.65.9.68.88.72zM.97.68c.02.04.03.07.04.11C.97.8.93.81.89.81.9.79.92.77.93.74.94.72.95.7.97.67zm-.28.3C.66.95.64.92.61.89h.16C.74.92.72.95.69.98zM.48.82C.44.81.4.81.37.8.38.76.39.73.41.69c.01.02.02.04.04.07.01.02.03.04.04.07zM.69.24C.72.27.74.3.77.33H.61C.64.3.66.27.69.24zM.48.4C.47.42.45.44.44.47.43.49.42.51.4.54A.487.487 0 0 1 .36.43C.4.42.44.41.48.41zM.23.75C.13.71.07.65.07.61c0-.04.06-.1.16-.14C.25.46.28.45.31.44c.02.05.04.11.06.17C.34.67.32.72.31.78.28.77.26.76.23.75zm.15.4C.34 1.13.33 1.05.34.94.34.91.35.89.35.86.4.87.46.88.53.89c.04.05.08.1.12.14-.09.08-.18.13-.23.13-.01 0-.02 0-.03-.01zm.66-.21c.01.11 0 .19-.04.21-.01.01-.02.01-.03.01-.06 0-.14-.05-.23-.13C.78.99.82.94.86.89l.18-.03c.01.03.01.06.01.08zm.11-.19c-.02.01-.05.02-.08.03a3.25 3.25 0 0 1-.06-.17c.03-.06.05-.11.06-.17.03.01.05.02.08.03.1.04.16.1.16.14 0 .04-.06.1-.16.14zM.41 0z" />
            <circle style="fill:#61dafb;" cx=".68" cy=".61" r=".13" />
            <path style="fill:#61dafb;" d="M.96 0z" />
        </g>
    </g>
</svg>
